cssgg/crowdfire.svg

<svg
  width="24"
  height="24"
  viewBox="0 0 24 24"
  fill="none"
  xmlns="http://www.w3.org/2000/svg"
>
  <path
    fill-rule="evenodd"
    clip-rule="evenodd"
    d="M2 12C2 6.47715 6.47715 2 12 2V4H20V12H22C22 17.5228 17.5228 22 12 22C6.47715 22 2 17.5228 2 12ZM18 12H16V8H12V6C8.68629 6 6 8.68629 6 12C6 15.3137 8.68629 18 12 18C15.3137 18 18 15.3137 18 12Z"
    fill="currentColor"
  />
</svg>

<svg viewBox="0 0 24 24" xmlns="http://www.w3.org/2000/svg"><path fill-rule="evenodd" d="M2 12C2 6.47 6.47 2 12 2v2h8v8h2c0 5.52-4.48 10-10 10C6.47 22 2 17.52 2 12Zm16 0h-2V8h-4V6c-3.32 0-6 2.68-6 6 0 3.31 2.68 6 6 6 3.31 0 6-2.69 6-6Z"/></svg>
